static/img/mobile/top-navbar-anatomy-dark.svg

<svg fill="none" height="224" viewBox="0 0 960 224" width="960" xmlns="http://www.w3.org/2000/svg" xmlns:xlink="http://www.w3.org/1999/xlink"><filter id="a" color-interpolation-filters="sRGB" filterUnits="userSpaceOnUse" height="70" width="418" x="29" y="78"><feFlood flood-opacity="0" result="BackgroundImageFix"/><feColorMatrix in="SourceAlpha" result="hardAlpha" type="matrix" values="0 0 0 0 0 0 0 0 0 0 0 0 0 0 0 0 0 0 127 0"/><feOffset dy="1"/><feGaussianBlur stdDeviation="1.5"/><feColorMatrix type="matrix" values="0 0 0 0 0 0 0 0 0 0 0 0 0 0 0 0 0 0 0.2 0"/><feBlend in2="BackgroundImageFix" mode="normal" result="effect1_dropShadow_296_60915"/><feColorMatrix in="SourceAlpha" result="hardAlpha" type="matrix" values="0 0 0 0 0 0 0 0 0 0 0 0 0 0 0 0 0 0 127 0"/><feOffset dy="2"/><feGaussianBlur stdDeviation=".5"/><feColorMatrix type="matrix" values="0 0 0 0 0 0 0 0 0 0 0 0 0 0 0 0 0 0 0.12 0"/><feBlend in2="effect1_dropShadow_296_60915" mode="normal" result="effect2_dropShadow_296_60915"/><feColorMatrix in="SourceAlpha" result="hardAlpha" type="matrix" values="0 0 0 0 0 0 0 0 0 0 0 0 0 0 0 0 0 0 127 0"/><feOffset dy="1"/><feGaussianBlur stdDeviation=".5"/><feColorMatrix type="matrix" values="0 0 0 0 0 0 0 0 0 0 0 0 0 0 0 0 0 0 0.14 0"/><feBlend in2="effect2_dropShadow_296_60915" mode="normal" result="effect3_dropShadow_296_60915"/><feBlend in="SourceGraphic" in2="effect3_dropShadow_296_60915" mode="normal" result="shape"/></filter><clipPath id="b"><path d="m0 0h960v224h-960z"/></clipPath><clipPath id="c"><path d="m0 0h960v224h-960z"/></clipPath><clipPath id="d"><path d="m404 100h24v24h-24z"/></clipPath><clipPath id="e"><path d="m828 100h24v24h-24z"/></clipPath><g clip-path="url(#b)"><g clip-path="url(#c)"><path d="m0 0h476v224h-476z" fill="#252a2e"/><g filter="url(#a)"><path d="m0 0h412v64h-412z" fill="#004f83" transform="translate(32 80)"/><path d="m52 118h16c.55 0 1-.45 1-1s-.45-1-1-1h-16c-.55 0-1 .45-1 1s.45 1 1 1zm0-5h16c.55 0 1-.45 1-1s-.45-1-1-1h-16c-.55 0-1 .45-1 1s.45 1 1 1zm-1-6c0 .55.45 1 1 1h16c.55 0 1-.45 1-1s-.45-1-1-1h-16c-.55 0-1 .45-1 1z" fill="#fff"/><path d="m223.326 120h-2.353v-12.285h-4.18v-1.992h10.703v1.992h-4.17zm8.568-10.811v10.811h-2.295v-10.811zm-1.133-4.14c.352 0 .655.094.909.283.26.189.39.514.39.977 0 .455-.13.781-.39.976-.254.189-.557.283-.909.283-.364 0-.674-.094-.927-.283-.248-.195-.372-.521-.372-.976 0-.463.124-.788.372-.977.253-.189.563-.283.927-.283zm8.598 13.291c.299 0 .595-.026.888-.078.293-.059.56-.127.801-.205v1.738c-.254.111-.583.205-.986.283-.404.078-.824.117-1.26.117-.612 0-1.162-.101-1.65-.302-.489-.209-.876-.564-1.163-1.065-.286-.501-.429-1.195-.429-2.08v-5.81h-1.475v-1.026l1.582-.81.752-2.315h1.445v2.402h3.096v1.749h-3.096v5.781c0 .547.137.954.411 1.22.273.267.634.401 1.084.401zm6.341 1.66h-2.305v-15.195h2.305zm7.738-11.016c.963 0 1.79.199 2.48.596s1.221.96 1.592 1.69c.371.729.557 1.601.557 2.617v1.23h-7.217c.026 1.048.306 1.856.84 2.422.54.566 1.295.85 2.265.85.691 0 1.309-.065 1.856-.196.553-.136 1.123-.335 1.709-.595v1.865c-.54.254-1.091.439-1.65.557-.56.117-1.231.175-2.012.175-1.061 0-1.996-.205-2.803-.615-.801-.417-1.429-1.035-1.885-1.855-.449-.821-.674-1.84-.674-3.057 0-1.211.206-2.24.616-3.086s.986-1.491 1.728-1.934c.742-.442 1.608-.664 2.598-.664zm0 1.729c-.723 0-1.309.234-1.758.703-.443.469-.703 1.156-.781 2.061h4.922c-.007-.541-.098-1.019-.274-1.436-.169-.417-.429-.742-.781-.977-.345-.234-.788-.351-1.328-.351z" fill="#fff"/><g clip-path="url(#d)"><path d="m416 102c-5.52 0-10 4.48-10 10s4.48 10 10 10 10-4.48 10-10-4.48-10-10-10zm0 4c2.07 0 3.75 1.68 3.75 3.75s-1.68 3.75-3.75 3.75-3.75-1.68-3.75-3.75 1.68-3.75 3.75-3.75zm0 14c-2.84 0-5.34-1.5-6.76-3.74.13-.07.27-.14.43-.21 1.22-.56 3.47-1.37 6.33-1.37 2.87 0 5.12.81 6.33 1.37.16.07.3.15.43.22-1.42 2.24-3.91 3.73-6.76 3.73z" fill="#fff"/></g></g><path d="m0 0h240v224h-240z" fill="#252a2e" transform="translate(478)"/><path d="m583.326 120h-2.353v-12.285h-4.18v-1.992h10.703v1.992h-4.17zm8.568-10.811v10.811h-2.295v-10.811zm-1.133-4.14c.352 0 .655.094.909.283.26.189.39.514.39.977 0 .455-.13.781-.39.976-.254.189-.557.283-.909.283-.364 0-.674-.094-.927-.283-.248-.195-.372-.521-.372-.976 0-.463.124-.788.372-.977.253-.189.563-.283.927-.283zm8.598 13.291c.299 0 .595-.026.888-.078.293-.059.56-.127.801-.205v1.738c-.254.111-.583.205-.986.283-.404.078-.824.117-1.26.117-.612 0-1.162-.101-1.65-.302-.489-.209-.876-.564-1.163-1.065-.286-.501-.429-1.195-.429-2.08v-5.81h-1.475v-1.026l1.582-.81.752-2.315h1.445v2.402h3.096v1.749h-3.096v5.781c0 .547.137.954.411 1.22.273.267.634.401 1.084.401zm6.341 1.66h-2.305v-15.195h2.305zm7.738-11.016c.963 0 1.79.199 2.48.596s1.221.96 1.592 1.69c.371.729.557 1.601.557 2.617v1.23h-7.217c.026 1.048.306 1.856.84 2.422.54.566 1.295.85 2.265.85.691 0 1.309-.065 1.856-.196.553-.136 1.123-.335 1.709-.595v1.865c-.54.254-1.091.439-1.65.557-.56.117-1.231.175-2.012.175-1.061 0-1.996-.205-2.803-.615-.801-.417-1.429-1.035-1.885-1.855-.449-.821-.674-1.84-.674-3.057 0-1.211.206-2.24.616-3.086s.986-1.491 1.728-1.934c.742-.442 1.608-.664 2.598-.664zm0 1.729c-.723 0-1.309.234-1.758.703-.443.469-.703 1.156-.781 2.061h4.922c-.007-.541-.098-1.019-.274-1.436-.169-.417-.429-.742-.781-.977-.345-.234-.788-.351-1.328-.351z" fill="#fff"/><path d="m0 0h240v224h-240z" fill="#252a2e" transform="translate(720)"/><g clip-path="url(#e)"><path d="m831 118h18v-2h-18zm0-5h18v-2h-18zm0-7v2h18v-2z" fill="#fff"/></g></g></g></svg>

<svg width="960" height="224" viewBox="0 0 960 224" fill="none" xmlns="http://www.w3.org/2000/svg">
<g clip-path="url(#clip0_296_60915)">
<g clip-path="url(#clip1_296_60915)">
<rect width="476" height="224" fill="#252A2E"/>
<g filter="url(#filter0_ddd_296_60915)">
<rect width="412" height="64" transform="translate(32 80)" fill="#004F83"/>
<path d="M52 118H68C68.55 118 69 117.55 69 117C69 116.45 68.55 116 68 116H52C51.45 116 51 116.45 51 117C51 117.55 51.45 118 52 118ZM52 113H68C68.55 113 69 112.55 69 112C69 111.45 68.55 111 68 111H52C51.45 111 51 111.45 51 112C51 112.55 51.45 113 52 113ZM51 107C51 107.55 51.45 108 52 108H68C68.55 108 69 107.55 69 107C69 106.45 68.55 106 68 106H52C51.45 106 51 106.45 51 107Z" fill="white"/>
<path d="M223.326 120H220.973V107.715H216.793V105.723H227.496V107.715H223.326V120ZM231.894 109.189V120H229.599V109.189H231.894ZM230.761 105.049C231.113 105.049 231.416 105.143 231.67 105.332C231.93 105.521 232.06 105.846 232.06 106.309C232.06 106.764 231.93 107.09 231.67 107.285C231.416 107.474 231.113 107.568 230.761 107.568C230.397 107.568 230.087 107.474 229.834 107.285C229.586 107.09 229.462 106.764 229.462 106.309C229.462 105.846 229.586 105.521 229.834 105.332C230.087 105.143 230.397 105.049 230.761 105.049ZM239.359 118.34C239.658 118.34 239.954 118.314 240.247 118.262C240.54 118.203 240.807 118.135 241.048 118.057V119.795C240.794 119.906 240.465 120 240.062 120.078C239.658 120.156 239.238 120.195 238.802 120.195C238.19 120.195 237.64 120.094 237.152 119.893C236.663 119.684 236.276 119.329 235.989 118.828C235.703 118.327 235.56 117.633 235.56 116.748V110.938H234.085V109.912L235.667 109.102L236.419 106.787H237.864V109.189H240.96V110.938H237.864V116.719C237.864 117.266 238.001 117.673 238.275 117.939C238.548 118.206 238.909 118.34 239.359 118.34ZM245.7 120H243.395V104.805H245.7V120ZM253.438 108.984C254.401 108.984 255.228 109.183 255.918 109.58C256.608 109.977 257.139 110.54 257.51 111.27C257.881 111.999 258.067 112.871 258.067 113.887V115.117H250.85C250.876 116.165 251.156 116.973 251.69 117.539C252.23 118.105 252.985 118.389 253.955 118.389C254.646 118.389 255.264 118.324 255.811 118.193C256.364 118.057 256.934 117.858 257.52 117.598V119.463C256.98 119.717 256.429 119.902 255.87 120.02C255.31 120.137 254.639 120.195 253.858 120.195C252.797 120.195 251.862 119.99 251.055 119.58C250.254 119.163 249.626 118.545 249.17 117.725C248.721 116.904 248.496 115.885 248.496 114.668C248.496 113.457 248.702 112.428 249.112 111.582C249.522 110.736 250.098 110.091 250.84 109.648C251.582 109.206 252.448 108.984 253.438 108.984ZM253.438 110.713C252.715 110.713 252.129 110.947 251.68 111.416C251.237 111.885 250.977 112.572 250.899 113.477H255.821C255.814 112.936 255.723 112.458 255.547 112.041C255.378 111.624 255.118 111.299 254.766 111.064C254.421 110.83 253.978 110.713 253.438 110.713Z" fill="white"/>
<g clip-path="url(#clip2_296_60915)">
<path d="M416 102C410.48 102 406 106.48 406 112C406 117.52 410.48 122 416 122C421.52 122 426 117.52 426 112C426 106.48 421.52 102 416 102ZM416 106C418.07 106 419.75 107.68 419.75 109.75C419.75 111.82 418.07 113.5 416 113.5C413.93 113.5 412.25 111.82 412.25 109.75C412.25 107.68 413.93 106 416 106ZM416 120C413.16 120 410.66 118.5 409.24 116.26C409.37 116.19 409.51 116.12 409.67 116.05C410.89 115.49 413.14 114.68 416 114.68C418.87 114.68 421.12 115.49 422.33 116.05C422.49 116.12 422.63 116.2 422.76 116.27C421.34 118.51 418.85 120 416 120Z" fill="white"/>
</g>
</g>
<rect width="240" height="224" transform="translate(478)" fill="#252A2E"/>
<path d="M583.326 120H580.973V107.715H576.793V105.723H587.496V107.715H583.326V120ZM591.894 109.189V120H589.599V109.189H591.894ZM590.761 105.049C591.113 105.049 591.416 105.143 591.67 105.332C591.93 105.521 592.06 105.846 592.06 106.309C592.06 106.764 591.93 107.09 591.67 107.285C591.416 107.474 591.113 107.568 590.761 107.568C590.397 107.568 590.087 107.474 589.834 107.285C589.586 107.09 589.462 106.764 589.462 106.309C589.462 105.846 589.586 105.521 589.834 105.332C590.087 105.143 590.397 105.049 590.761 105.049ZM599.359 118.34C599.658 118.34 599.954 118.314 600.247 118.262C600.54 118.203 600.807 118.135 601.048 118.057V119.795C600.794 119.906 600.465 120 600.062 120.078C599.658 120.156 599.238 120.195 598.802 120.195C598.19 120.195 597.64 120.094 597.152 119.893C596.663 119.684 596.276 119.329 595.989 118.828C595.703 118.327 595.56 117.633 595.56 116.748V110.938H594.085V109.912L595.667 109.102L596.419 106.787H597.864V109.189H600.96V110.938H597.864V116.719C597.864 117.266 598.001 117.673 598.275 117.939C598.548 118.206 598.909 118.34 599.359 118.34ZM605.7 120H603.395V104.805H605.7V120ZM613.438 108.984C614.401 108.984 615.228 109.183 615.918 109.58C616.608 109.977 617.139 110.54 617.51 111.27C617.881 111.999 618.067 112.871 618.067 113.887V115.117H610.85C610.876 116.165 611.156 116.973 611.69 117.539C612.23 118.105 612.985 118.389 613.955 118.389C614.646 118.389 615.264 118.324 615.811 118.193C616.364 118.057 616.934 117.858 617.52 117.598V119.463C616.98 119.717 616.429 119.902 615.87 120.02C615.31 120.137 614.639 120.195 613.858 120.195C612.797 120.195 611.862 119.99 611.055 119.58C610.254 119.163 609.626 118.545 609.17 117.725C608.721 116.904 608.496 115.885 608.496 114.668C608.496 113.457 608.702 112.428 609.112 111.582C609.522 110.736 610.098 110.091 610.84 109.648C611.582 109.206 612.448 108.984 613.438 108.984ZM613.438 110.713C612.715 110.713 612.129 110.947 611.68 111.416C611.237 111.885 610.977 112.572 610.899 113.477H615.821C615.814 112.936 615.723 112.458 615.547 112.041C615.378 111.624 615.118 111.299 614.766 111.064C614.421 110.83 613.978 110.713 613.438 110.713Z" fill="white"/>
<rect width="240" height="224" transform="translate(720)" fill="#252A2E"/>
<g clip-path="url(#clip3_296_60915)">
<path d="M831 118H849V116H831V118ZM831 113H849V111H831V113ZM831 106V108H849V106H831Z" fill="white"/>
</g>
</g>
</g>
<defs>
<filter id="filter0_ddd_296_60915" x="29" y="78" width="418" height="70" filterUnits="userSpaceOnUse" color-interpolation-filters="sRGB">
<feFlood flood-opacity="0" result="BackgroundImageFix"/>
<feColorMatrix in="SourceAlpha" type="matrix" values="0 0 0 0 0 0 0 0 0 0 0 0 0 0 0 0 0 0 127 0" result="hardAlpha"/>
<feOffset dy="1"/>
<feGaussianBlur stdDeviation="1.5"/>
<feColorMatrix type="matrix" values="0 0 0 0 0 0 0 0 0 0 0 0 0 0 0 0 0 0 0.2 0"/>
<feBlend mode="normal" in2="BackgroundImageFix" result="effect1_dropShadow_296_60915"/>
<feColorMatrix in="SourceAlpha" type="matrix" values="0 0 0 0 0 0 0 0 0 0 0 0 0 0 0 0 0 0 127 0" result="hardAlpha"/>
<feOffset dy="2"/>
<feGaussianBlur stdDeviation="0.5"/>
<feColorMatrix type="matrix" values="0 0 0 0 0 0 0 0 0 0 0 0 0 0 0 0 0 0 0.12 0"/>
<feBlend mode="normal" in2="effect1_dropShadow_296_60915" result="effect2_dropShadow_296_60915"/>
<feColorMatrix in="SourceAlpha" type="matrix" values="0 0 0 0 0 0 0 0 0 0 0 0 0 0 0 0 0 0 127 0" result="hardAlpha"/>
<feOffset dy="1"/>
<feGaussianBlur stdDeviation="0.5"/>
<feColorMatrix type="matrix" values="0 0 0 0 0 0 0 0 0 0 0 0 0 0 0 0 0 0 0.14 0"/>
<feBlend mode="normal" in2="effect2_dropShadow_296_60915" result="effect3_dropShadow_296_60915"/>
<feBlend mode="normal" in="SourceGraphic" in2="effect3_dropShadow_296_60915" result="shape"/>
</filter>
<clipPath id="clip0_296_60915">
<rect width="960" height="224" fill="white"/>
</clipPath>
<clipPath id="clip1_296_60915">
<rect width="960" height="224" fill="white"/>
</clipPath>
<clipPath id="clip2_296_60915">
<rect width="24" height="24" fill="white" transform="translate(404 100)"/>
</clipPath>
<clipPath id="clip3_296_60915">
<rect width="24" height="24" fill="white" transform="translate(828 100)"/>
</clipPath>
</defs>
</svg>
